material/.icons/material/flare.svg

<svg xmlns="http://www.w3.org/2000/svg" viewBox="0 0 24 24"><path d="M7 11H1v2h6v-2m2.17-3.24L7.05 5.64 5.64 7.05l2.12 2.12 1.41-1.41M13 1h-2v6h2V1m5.36 6.05l-1.41-1.41-2.12 2.12 1.41 1.41 2.12-2.12M17 11v2h6v-2h-6m-5-2a3 3 0 00-3 3 3 3 0 003 3 3 3 0 003-3 3 3 0 00-3-3m2.83 7.24l2.12 2.12 1.41-1.41-2.12-2.12-1.41 1.41m-9.19.71l1.41 1.41 2.12-2.12-1.41-1.41-2.12 2.12M11 23h2v-6h-2v6z"/></svg>

<?xml version="1.0" encoding="UTF-8"?><!DOCTYPE svg PUBLIC "-//W3C//DTD SVG 1.1//EN" "http://www.w3.org/Graphics/SVG/1.1/DTD/svg11.dtd"><svg xmlns="http://www.w3.org/2000/svg" xmlns:xlink="http://www.w3.org/1999/xlink" version="1.1" id="mdi-flare" width="24" height="24" viewBox="0 0 24 24"><path d="M7,11H1V13H7V11M9.17,7.76L7.05,5.64L5.64,7.05L7.76,9.17L9.17,7.76M13,1H11V7H13V1M18.36,7.05L16.95,5.64L14.83,7.76L16.24,9.17L18.36,7.05M17,11V13H23V11H17M12,9A3,3 0 0,0 9,12A3,3 0 0,0 12,15A3,3 0 0,0 15,12A3,3 0 0,0 12,9M14.83,16.24L16.95,18.36L18.36,16.95L16.24,14.83L14.83,16.24M5.64,16.95L7.05,18.36L9.17,16.24L7.76,14.83L5.64,16.95M11,23H13V17H11V23Z" /></svg>
